svg/battery_arrow_up.svg

<svg xmlns="http://www.w3.org/2000/svg" viewBox="0 0 24 24"><path d="M13.54 22H7.33C6.6 22 6 21.4 6 20.67V5.33C6 4.6 6.6 4 7.33 4H9V2h6v2h1.67C17.4 4 18 4.6 18 5.33V12c-3.31 0-6 2.69-6 6 0 1.54.58 2.94 1.54 4m7.4-4.5-3-3-3 3h2v4h2v-4z"/></svg>

<svg xmlns="http://www.w3.org/2000/svg" id="mdi-battery-arrow-up" viewBox="0 0 24 24"><path d="M13.54 22H7.33C6.6 22 6 21.4 6 20.67V5.33C6 4.6 6.6 4 7.33 4H9V2H15V4H16.67C17.4 4 18 4.6 18 5.33V12C14.69 12 12 14.69 12 18C12 19.54 12.58 20.94 13.54 22M20.94 17.5L17.94 14.5L14.94 17.5H16.94V21.5H18.94V17.5H20.94" /></svg>
